tipitek/img/coinlist_icon-4.svg

<svg width="18" height="17" viewBox="0 0 18 17" fill="none" xmlns="http://www.w3.org/2000/svg">
<path fill-rule="evenodd" clip-rule="evenodd" d="M15.8794 3.37262V1.68631V0H9.01118H2.14291V1.68631V3.37262H4.66152H7.18012V4.47112V5.56961L7.01728 5.57913C5.88611 5.64524 5.15891 5.71197 4.31412 5.82719C2.89547 6.02066 1.71189 6.30746 0.963216 6.63919C-0.123534 7.12072 -0.298563 7.68232 0.478195 8.19543C1.41587 8.81484 3.69573 9.30369 6.47086 9.48041C6.7296 9.4969 6.99502 9.51411 7.06071 9.51868L7.18012 9.52699V13.0575V16.5881H9.00394H10.8278V13.0573V9.52647L10.9038 9.51857C10.9456 9.51423 11.0644 9.50683 11.1679 9.50214C11.2714 9.49747 11.5352 9.48088 11.7541 9.46529C14.4222 9.27536 16.5882 8.80308 17.5079 8.21072C17.719 8.07474 17.8741 7.92019 17.9466 7.77361C17.9956 7.67451 18 7.65554 18 7.54122C18 7.42769 17.9955 7.40793 17.9493 7.31658C17.8835 7.1864 17.7248 7.02557 17.544 6.90589C16.7681 6.39202 15.1024 5.96819 12.9338 5.73278C12.3237 5.66655 11.905 5.63314 11.0051 5.57887L10.8422 5.56906V4.47083V3.37262H13.3608H15.8794ZM4.40097 6.0658C5.10679 5.97169 5.74766 5.91174 6.71693 5.84916C6.81644 5.84273 6.96134 5.83655 7.03891 5.83541L7.17996 5.83333L7.18366 7.06006L7.18736 8.2868L7.28151 8.29612C7.90454 8.35777 10.17 8.35971 10.7445 8.29907L10.8278 8.2903V7.05967V5.82903L11.0485 5.83877C11.618 5.86388 12.5189 5.93672 13.1365 6.00757C14.6868 6.18544 15.8844 6.45655 16.5525 6.78093C16.7731 6.88801 16.8688 6.95028 16.9843 7.0618C17.0981 7.17171 17.1446 7.26251 17.1447 7.37489C17.1447 7.48174 17.1082 7.55757 17.0036 7.66823C16.762 7.92365 16.2064 8.15842 15.3511 8.36647C14.067 8.67882 12.231 8.8834 10.1402 8.94712C9.26692 8.97373 7.75292 8.95303 6.81102 8.9016C4.11841 8.75459 1.9986 8.34878 1.19826 7.82709C0.778141 7.55325 0.746644 7.25207 1.10963 6.97965C1.6031 6.60929 2.78388 6.28145 4.40097 6.0658Z" fill="#3F7753"/>
</svg>

<svg width="18" height="17" fill="none" xmlns="http://www.w3.org/2000/svg"><path fill-rule="evenodd" clip-rule="evenodd" d="M15.88 3.373V0H2.142v3.373H7.18V5.57l-.163.01a32.534 32.534 0 0 0-2.703.247c-1.419.194-2.602.48-3.35.812C-.125 7.121-.3 7.682.477 8.195c.938.62 3.218 1.109 5.993 1.285l.59.039.12.008v7.061H10.827V9.526l.076-.007a6.5 6.5 0 0 1 .264-.017c.103-.005.367-.021.586-.037 2.668-.19 4.834-.662 5.754-1.254.211-.136.366-.29.439-.437A.38.38 0 0 0 18 7.54a.363.363 0 0 0-.05-.224c-.066-.13-.225-.291-.406-.411-.776-.514-2.442-.938-4.61-1.173-.61-.066-1.029-.1-1.929-.154l-.163-.01V3.373h5.037zM4.4 6.066a32.032 32.032 0 0 1 2.316-.217c.1-.006.244-.012.322-.014l.141-.002.004 1.227.003 1.227.095.01c.623.06 2.888.063 3.463.002l.083-.009V5.83l.22.01c.57.025 1.47.098 2.088.169 1.55.177 2.748.449 3.416.773.221.107.317.17.432.28.114.11.16.202.16.314 0 .107-.036.183-.14.293-.242.256-.798.49-1.653.698-1.284.313-3.12.517-5.21.581-.874.027-2.388.006-3.33-.045-2.693-.147-4.812-.553-5.613-1.075-.42-.274-.451-.575-.088-.847.493-.37 1.674-.699 3.291-.914z" fill="#3F7753"/></svg>
